icons/box-cursor.svg

<svg xmlns="http://www.w3.org/2000/svg" viewBox="0 0 24 24" fill="currentColor">
  <path d="M7 3.66797c-1.78579 0-3.25 1.46421-3.25 3.25V16.918c0 1.7858 1.46421 3.25 3.25 3.25.41421 0 .75.3358.75.75s-.33579.75-.75.75c-2.61421 0-4.75-2.1358-4.75-4.75V6.91797c0-2.61421 2.13579-4.75 4.75-4.75h10c2.6142 0 4.75 2.13579 4.75 4.75V11.918c0 .4142-.3358.75-.75.75s-.75-.3358-.75-.75V6.91797c0-1.78579-1.4642-3.25-3.25-3.25h-1.25v3.75c0 1.21421-1.0358 2.25-2.25 2.25h-3c-1.21421 0-2.25-1.03579-2.25-2.25v-3.75H7Zm2.75 3.75v-3.75h4.5v3.75c0 .38579-.3642.75-.75.75h-3c-.3858 0-.75-.36421-.75-.75Zm3.7187 11.51383-1.739-5.2838 5.2838 1.7389-2.204.3857c-.2723.027-.471.1714-.5899.2903-.1302.1302-.2228.2846-.2905.4199l-.049.0981-.4114 2.3509Zm-2.8397-7.0425c.1695-.0498.401-.0689.6383.0273l7.8698 2.5901c.5371.179.7379.683.7379 1.049 0 .1947-.0518.4334-.2132.642-.1615.2084-.4019.3434-.6758.3669l-3.6934.6463-.6635 3.7916-.0176.0529c-.1312.3935-.481.726-.9369.7716-.242.0242-.5021-.0381-.7192-.2105-.2016-.1601-.3167-.3749-.3746-.5845l-2.54-7.7176c-.0127-.0179-.025-.0365-.0367-.056-.09945-.1658-.12964-.3436-.11755-.5009.02201-.2861.17635-.4879.28315-.5946.1191-.1192.2765-.2199.4593-.2736Z"/>
</svg>

<svg width="24" height="24" viewBox="0 0 24 24" fill="none" xmlns="http://www.w3.org/2000/svg">
<path fill-rule="evenodd" clip-rule="evenodd" d="M7 3.66797C5.21421 3.66797 3.75 5.13218 3.75 6.91797V16.918C3.75 18.7038 5.21421 20.168 7 20.168C7.41421 20.168 7.75 20.5038 7.75 20.918C7.75 21.3322 7.41421 21.668 7 21.668C4.38579 21.668 2.25 19.5322 2.25 16.918V6.91797C2.25 4.30376 4.38579 2.16797 7 2.16797H9H15H17C19.6142 2.16797 21.75 4.30376 21.75 6.91797V11.918C21.75 12.3322 21.4142 12.668 21 12.668C20.5858 12.668 20.25 12.3322 20.25 11.918V6.91797C20.25 5.13218 18.7858 3.66797 17 3.66797H15.75V7.41797C15.75 8.63218 14.7142 9.66797 13.5 9.66797H10.5C9.28579 9.66797 8.25 8.63218 8.25 7.41797V3.66797H7ZM9.75 7.41797V3.66797H14.25V7.41797C14.25 7.80376 13.8858 8.16797 13.5 8.16797H10.5C10.1142 8.16797 9.75 7.80376 9.75 7.41797ZM13.4687 18.9318L11.7297 13.648L17.0135 15.3869L14.8095 15.7726C14.5372 15.7996 14.3385 15.944 14.2196 16.0629C14.0894 16.1931 13.9968 16.3475 13.9291 16.4828L13.8801 16.5809L13.4687 18.9318ZM10.629 11.8893C10.7985 11.8395 11.03 11.8204 11.2673 11.9166L19.1371 14.5067C19.6742 14.6857 19.875 15.1897 19.875 15.5557C19.875 15.7504 19.8232 15.9891 19.6618 16.1977C19.5003 16.4061 19.2599 16.5411 18.986 16.5646L15.2926 17.2109L14.6291 21.0025L14.6115 21.0554C14.4803 21.4489 14.1305 21.7814 13.6746 21.827C13.4326 21.8512 13.1725 21.7889 12.9554 21.6165C12.7538 21.4564 12.6387 21.2416 12.5808 21.032L10.0408 13.3144C10.0281 13.2965 10.0158 13.2779 10.0041 13.2584C9.90465 13.0926 9.87446 12.9148 9.88655 12.7575C9.90856 12.4714 10.0629 12.2696 10.1697 12.1629C10.2888 12.0437 10.4462 11.943 10.629 11.8893Z" fill="black"/>
</svg>
